svg/u1f40c.svg

<svg viewBox="0 0 128 128" xmlns="http://www.w3.org/2000/svg">
  <path d="M28.43,53.34c0,0,1.67-18.16,23.03-28.02c24.95-11.52,50.69,4.77,57.49,24.57 c5.81,16.91-0.67,34.36-7.2,40.12s-15.16,20.54-42.23,19.39C32.46,108.24,23.05,67.93,28.43,53.34z" fill="#A05D43"/>
  <path d="M49.93,102.48c3.95,4.1,15.93,7.1,26.68,3.65c10.75-3.45,11.32-6.72,11.32-6.72 s-16.12,5.18-25.91,0.77c-9.79-4.41-15.36-23.03-15.36-23.03S39.75,91.92,49.93,102.48z" fill="#D27856"/>
  <path d="M22.67,50.61c-2.17,1.63-4.03,4.89-5.18,7.05c-1.15,2.16-1.44,4.46-5.18,6.77 c-3.74,2.3-6.91,1.3-7.92,2.3s0.43,4.75,5.04,5.33c4.61,0.58,6.62-0.72,6.62-0.72s0.43,10.65,0.43,16.41s3.17,28.2,21.31,31.53 c14.64,2.69,22.89-0.91,26.92-3.07c6.92-3.71,8.78-6.14,13.68-7.73c4.89-1.58,7.98,0.02,13.2-2.06c5.76-2.3,6.91-8.06,10.36-10.65 c3.45-2.59,6.29-1.87,9.6-4.61c3.31-2.74,2.59-5.57,8.01-10.32c2.07-1.81,4.46-3.31,5.04-4.89c0.58-1.58-7.77-2.02-9.79-2.02 c-2.02,0-4.82,0.07-4.82,0.07s-1.08,4.39-2.38,7.13c-1.3,2.74-10.51,15.12-13.39,16.41c-2.88,1.3-4.8,1.3-6.29,1.87 c-1.49,0.58-9.41,4.61-12.72,5.04c-3.31,0.43-13.93,2.9-20.01-3.41c-5.09-5.28-6.33-12.28-6.62-16.17 c-0.29-3.89-0.29-14.11-0.29-14.11s1.73,2.06,7.39,2.06c3.46,0,6.14-3.62,5.47-4.89c-0.86-1.63-4.77-1.13-6.62-2.21 c-2.3-1.34-4.61-4.89-5.18-6.53c-0.54-1.52-1.87-5.33-4.22-7.49c-2.42-2.22-5.85-4.03-11.52-3.93 C28.43,47.86,25.55,48.45,22.67,50.61z" fill="#E9BB91"/>
  <path d="M44.41,54.21c0,0,2.3-22.6,2.59-26.2c0.29-3.6,1.73-12.09,1.73-14.54s-0.72-6.62-5.04-7.05 s-5.76,4.89-5.9,8.49c-0.14,3.6-1.73,34.55-1.73,34.55l-6.19-0.14c0,0,0.14-19.43,0.29-23.46c0.14-4.03,0.14-10.94,0.14-12.38 s0-7.49-5.47-7.2c-5.47,0.29-4.89,6.62-5.04,8.64s0.86,16.55,1.01,19.43c0.14,2.88,1.44,18.86,1.44,18.86L44.41,54.21z" fill="#E9BB91"/>
  <path d="M33.23,60.35c0,0-1.82,3.93-4.41,3.93s-2.59-2.21-3.93-1.34c-1.34,0.86-0.58,4.8,2.88,5.47 c3.45,0.67,5.47-1.25,5.47-1.25s2.07,1.44,4.03,1.44c2.5,0,5.28-3.65,4.22-5.28c-1.06-1.63-2.88,1.25-4.61,1.15 C35.15,64.38,33.23,60.35,33.23,60.35z" fill="#D27856"/>
  <path d="M59.2,26.07c-4.65,1.4-6.52,3.35-7.92,4.67c-1.4,1.32-1.92,4.34-0.27,6.09 c1.65,1.75,4.57,1.18,6.12,0.08c1.55-1.1,3.01-2.21,5.37-2.87c2.35-0.66,5.89-0.83,6.97-1.43c1.08-0.59,1.86-2.31,1.49-4.12 c-0.37-1.82-1.36-2.86-4-3.32C65,24.83,62.28,25.14,59.2,26.07z" fill="#D27856"/>
  <path d="M74.21,28.68c0,1.34,0.38,2.4,2.88,2.69c2.79,0.32,3.84-1.06,3.74-2.5c-0.1-1.46-0.77-2.3-2.78-2.69 C76.03,25.8,74.21,26.66,74.21,28.68z" fill="#D27856"/>
  <path d="M46.66,16.39c-0.49,4.1-1.75,7.14-3.84,6.91c-3.02-0.34-2.98-3.74-2.98-7.87 c0-3.87,1.14-6.9,4.13-6.57C46.83,9.17,47.12,12.55,46.66,16.39z" fill="#2E2C2F"/>
  <path d="M28.54,16.01c-0.12,4.13-1.36,6.85-3.29,7.01c-2.29,0.19-3.61-3.55-3.73-7.58 c-0.11-3.87,0.71-6.39,3.53-6.57C28.36,8.64,28.65,12.14,28.54,16.01z" fill="#2E2C2F"/>
  <path d="M88.99,92.59c-5.94-0.33-14.78-5.95-15.07-22.55s6.15-23.86,13.24-22.65 c6.72,1.15,7.87,10.17,7.1,16.41c-0.77,6.24-2.59,13.34-6.72,11.32c-4.13-2.02-1.92-9.69-1.06-11.52c0.86-1.82,2.11-3.93,0.86-5.18 c-1.25-1.25-4.03,0.29-5.18,2.59c-1.15,2.3-3.55,7.77-1.25,15.07c2.3,7.29,11.8,8.16,15.55,0.77c3.74-7.39,4.61-21.21,1.34-27.64 c-3.26-6.43-13.92-13.63-24.18-1.82c-9.92,11.41-6.24,31.57-3.84,37.52c2.4,5.95,7.49,13.15,17.56,14.4s18.62-10.65,19.29-11.71 c0.67-1.06,3.26-4.51,0.96-6.48c-2.3-1.97-4.89,2.54-5.57,3.5C101.37,85.59,95.9,92.98,88.99,92.59z" fill="#4F352E"/>
</svg>

<svg viewBox="0 0 128 128" xmlns="http://www.w3.org/2000/svg">
  <defs/>
  <path d="M28.43,53.34 C28.43,53.34 30.1,35.18 51.46,25.32 C76.41,13.8 102.15,30.09 108.95,49.89 C114.76,66.8 108.28,84.25 101.75,90.01 C95.22,95.77 86.59,110.55 59.52,109.4 C32.46,108.24 23.05,67.93 28.43,53.34 Z" fill="#A05D43"/>
  <path d="M49.93,102.48 C53.88,106.58 65.86,109.58 76.61,106.13 C87.36,102.68 87.93,99.41 87.93,99.41 C87.93,99.41 71.81,104.59 62.02,100.18 C52.23,95.77 46.66,77.15 46.66,77.15 C46.66,77.15 39.75,91.92 49.93,102.48 Z" fill="#D27856"/>
  <path d="M22.67,50.61 C20.5,52.24 18.64,55.5 17.49,57.66 C16.34,59.82 16.05,62.12 12.31,64.43 C8.57,66.73 5.4,65.73 4.39,66.73 C3.38,67.73 4.82,71.48 9.43,72.06 C14.04,72.64 16.05,71.34 16.05,71.34 C16.05,71.34 16.48,81.99 16.48,87.75 C16.48,93.51 19.65,115.95 37.79,119.28 C52.43,121.97 60.68,118.37 64.71,116.21 C71.63,112.5 73.49,110.07 78.39,108.48 C83.28,106.9 86.37,108.5 91.59,106.42 C97.35,104.12 98.5,98.36 101.95,95.77 C105.4,93.18 108.24,93.9 111.55,91.16 C114.86,88.42 114.14,85.59 119.56,80.84 C121.63,79.03 124.02,77.53 124.6,75.95 C125.18,74.37 116.83,73.93 114.81,73.93 C112.79,73.93 109.99,74 109.99,74 C109.99,74 108.91,78.39 107.61,81.13 C106.31,83.87 97.1,96.25 94.22,97.54 C91.34,98.84 89.42,98.84 87.93,99.41 C86.44,99.99 78.52,104.02 75.21,104.45 C71.9,104.88 61.28,107.35 55.2,101.04 C50.11,95.76 48.87,88.76 48.58,84.87 C48.29,80.98 48.29,70.76 48.29,70.76 C48.29,70.76 50.02,72.82 55.68,72.82 C59.14,72.82 61.82,69.2 61.15,67.93 C60.29,66.3 56.38,66.8 54.53,65.72 C52.23,64.38 49.92,60.83 49.35,59.19 C48.81,57.67 47.48,53.86 45.13,51.7 C42.71,49.48 39.28,47.67 33.61,47.77 C28.43,47.86 25.55,48.45 22.67,50.61 Z" fill="#E9BB91"/>
  <path d="M44.41,54.21 C44.41,54.21 46.71,31.61 47,28.01 C47.29,24.41 48.73,15.92 48.73,13.47 C48.73,11.02 48.01,6.85 43.69,6.42 C39.37,5.99 37.93,11.31 37.79,14.91 C37.65,18.51 36.06,49.46 36.06,49.46 L29.87,49.32 C29.87,49.32 30.01,29.89 30.16,25.86 C30.3,21.83 30.3,14.92 30.3,13.48 C30.3,12.04 30.3,5.99 24.83,6.28 C19.36,6.57 19.94,12.9 19.79,14.92 C19.64,16.94 20.65,31.47 20.8,34.35 C20.94,37.23 22.24,53.21 22.24,53.21 L44.41,54.21 Z" fill="#E9BB91"/>
  <path d="M33.23,60.35 C33.23,60.35 31.41,64.28 28.82,64.28 C26.23,64.28 26.23,62.07 24.89,62.94 C23.55,63.8 24.31,67.74 27.77,68.41 C31.22,69.08 33.24,67.16 33.24,67.16 C33.24,67.16 35.31,68.6 37.27,68.6 C39.77,68.6 42.55,64.95 41.49,63.32 C40.43,61.69 38.61,64.57 36.88,64.47 C35.15,64.38 33.23,60.35 33.23,60.35 Z" fill="#D27856"/>
  <path d="M59.2,26.07 C54.55,27.47 52.68,29.42 51.28,30.74 C49.88,32.06 49.36,35.08 51.01,36.83 C52.66,38.58 55.58,38.01 57.13,36.91 C58.68,35.81 60.14,34.7 62.5,34.04 C64.85,33.38 68.39,33.21 69.47,32.61 C70.55,32.02 71.33,30.3 70.96,28.49 C70.59,26.67 69.6,25.63 66.96,25.17 C65,24.83 62.28,25.14 59.2,26.07 Z" fill="#D27856"/>
  <path d="M74.21,28.68 C74.21,30.02 74.59,31.08 77.09,31.37 C79.88,31.69 80.93,30.31 80.83,28.87 C80.73,27.41 80.06,26.57 78.05,26.18 C76.03,25.8 74.21,26.66 74.21,28.68 Z" fill="#D27856"/>
  <path d="M46.66,16.39 C46.17,20.49 44.91,23.53 42.82,23.3 C39.8,22.96 39.84,19.56 39.84,15.43 C39.84,11.56 40.98,8.53 43.97,8.86 C46.83,9.17 47.12,12.55 46.66,16.39 Z" fill="#2E2C2F"/>
  <path d="M28.54,16.01 C28.42,20.14 27.18,22.86 25.25,23.02 C22.96,23.21 21.64,19.47 21.52,15.44 C21.41,11.57 22.23,9.05 25.05,8.87 C28.36,8.64 28.65,12.14 28.54,16.01 Z" fill="#2E2C2F"/>
  <path d="M88.99,92.59 C83.05,92.26 74.21,86.64 73.92,70.04 C73.63,53.44 80.07,46.18 87.16,47.39 C93.88,48.54 95.03,57.56 94.26,63.8 C93.49,70.04 91.67,77.14 87.54,75.12 C83.41,73.1 85.62,65.43 86.48,63.6 C87.34,61.78 88.59,59.67 87.34,58.42 C86.09,57.17 83.31,58.71 82.16,61.01 C81.01,63.31 78.61,68.78 80.91,76.08 C83.21,83.37 92.71,84.24 96.46,76.85 C100.2,69.46 101.07,55.64 97.8,49.21 C94.54,42.78 83.88,35.58 73.62,47.39 C63.7,58.8 67.38,78.96 69.78,84.91 C72.18,90.86 77.27,98.06 87.34,99.31 C97.41,100.56 105.96,88.66 106.63,87.6 C107.3,86.54 109.89,83.09 107.59,81.12 C105.29,79.15 102.7,83.66 102.02,84.62 C101.37,85.59 95.9,92.98 88.99,92.59 Z" fill="#4F352E"/>
</svg>
